twotone/svg/view_comfy.svg

<svg xmlns="http://www.w3.org/2000/svg" width="24" height="24"><path fill="none" d="M0 0h24v24H0V0z"/><g fill="currentColor"><path opacity=".3" d="M9.25 11h2.25v2H9.25zM9.25 15h2.25v2H9.25zM9.25 7h2.25v2H9.25zM13.5 15h2.25v2H13.5zM5 15h2.25v2H5zM5 11h2.25v2H5zM5 7h2.25v2H5zM17.75 7H20v2h-2.25zM13.5 11h2.25v2H13.5zM13.5 7h2.25v2H13.5zM17.75 15H20v2h-2.25zM17.75 11H20v2h-2.25z"/><path d="M3 5v14h19V5H3zm4.25 12H5v-2h2.25v2zm0-4H5v-2h2.25v2zm0-4H5V7h2.25v2zm4.25 8H9.25v-2h2.25v2zm0-4H9.25v-2h2.25v2zm0-4H9.25V7h2.25v2zm4.25 8H13.5v-2h2.25v2zm0-4H13.5v-2h2.25v2zm0-4H13.5V7h2.25v2zM20 17h-2.25v-2H20v2zm0-4h-2.25v-2H20v2zm0-4h-2.25V7H20v2z"/></g></svg>

<?xml version="1.0" encoding="utf-8"?>
<!-- Generator: Adobe Illustrator 19.1.0, SVG Export Plug-In . SVG Version: 6.00 Build 0)  -->
<svg version="1.1" xmlns="http://www.w3.org/2000/svg" xmlns:xlink="http://www.w3.org/1999/xlink" x="0px" y="0px" width="24px"
	 height="24px" viewBox="0 0 24 24" enable-background="new 0 0 24 24" xml:space="preserve">
<g id="Bounding_Boxes">
	<g id="ui_x5F_spec_x5F_header_copy_2">
	</g>
	<path fill="none" d="M0,0h24v24H0V0z"/>
</g>
<g id="Duotone" fill="currentColor">
	<g id="ui_x5F_spec_x5F_header_copy_3">
	</g>
	<g>
		<rect x="9.25" y="11" opacity="0.3" width="2.25" height="2"/>
		<rect x="9.25" y="15" opacity="0.3" width="2.25" height="2"/>
		<rect x="9.25" y="7" opacity="0.3" width="2.25" height="2"/>
		<rect x="13.5" y="15" opacity="0.3" width="2.25" height="2"/>
		<rect x="5" y="15" opacity="0.3" width="2.25" height="2"/>
		<rect x="5" y="11" opacity="0.3" width="2.25" height="2"/>
		<rect x="5" y="7" opacity="0.3" width="2.25" height="2"/>
		<rect x="17.75" y="7" opacity="0.3" width="2.25" height="2"/>
		<rect x="13.5" y="11" opacity="0.3" width="2.25" height="2"/>
		<rect x="13.5" y="7" opacity="0.3" width="2.25" height="2"/>
		<rect x="17.75" y="15" opacity="0.3" width="2.25" height="2"/>
		<rect x="17.75" y="11" opacity="0.3" width="2.25" height="2"/>
		<path d="M3,5v14h19V5H3z M7.25,17H5v-2h2.25V17z M7.25,13H5v-2h2.25V13z M7.25,9H5V7h2.25V9z M11.5,17H9.25v-2h2.25V17z M11.5,13
			H9.25v-2h2.25V13z M11.5,9H9.25V7h2.25V9z M15.75,17H13.5v-2h2.25V17z M15.75,13H13.5v-2h2.25V13z M15.75,9H13.5V7h2.25V9z M20,17
			h-2.25v-2H20V17z M20,13h-2.25v-2H20V13z M20,9h-2.25V7H20V9z"/>
	</g>
</g>
</svg>
